; HEADER_BLOCK_START
; generated by OrcaSlicer 2.0.0-beta on 2024-03-24 at 16:09:45
; total layer number: 7
; filament_density: 1.27
; filament_diameter: 1.75
; max_z_height: 1.40
; HEADER_BLOCK_END

; THUMBNAIL_BLOCK_START

;
; THUMBNAIL_BLOCK_END

; external perimeters extrusion width = 0.40mm
; perimeters extrusion width = 0.40mm
; infill extrusion width = 0.45mm
; solid infill extrusion width = 0.40mm
; top infill extrusion width = 0.40mm
; first layer extrusion width = 0.50mm

; external perimeters extrusion width = 0.40mm
; perimeters extrusion width = 0.40mm
; infill extrusion width = 0.45mm
; solid infill extrusion width = 0.40mm
; top infill extrusion width = 0.40mm
; first layer extrusion width = 0.50mm

; external perimeters extrusion width = 0.40mm
; perimeters extrusion width = 0.40mm
; infill extrusion width = 0.45mm
; solid infill extrusion width = 0.40mm
; top infill extrusion width = 0.40mm
; first layer extrusion width = 0.50mm

; external perimeters extrusion width = 0.40mm
; perimeters extrusion width = 0.40mm
; infill extrusion width = 0.45mm
; solid infill extrusion width = 0.40mm
; top infill extrusion width = 0.40mm
; first layer extrusion width = 0.50mm

; external perimeters extrusion width = 0.40mm
; perimeters extrusion width = 0.40mm
; infill extrusion width = 0.45mm
; solid infill extrusion width = 0.40mm
; top infill extrusion width = 0.40mm
; first layer extrusion width = 0.50mm

; external perimeters extrusion width = 0.40mm
; perimeters extrusion width = 0.40mm
; infill extrusion width = 0.45mm
; solid infill extrusion width = 0.40mm
; top infill extrusion width = 0.40mm
; first layer extrusion width = 0.50mm

; external perimeters extrusion width = 0.40mm
; perimeters extrusion width = 0.40mm
; infill extrusion width = 0.45mm
; solid infill extrusion width = 0.40mm
; top infill extrusion width = 0.40mm
; first layer extrusion width = 0.50mm

; external perimeters extrusion width = 0.40mm
; perimeters extrusion width = 0.40mm
; infill extrusion width = 0.45mm
; solid infill extrusion width = 0.40mm
; top infill extrusion width = 0.40mm
; first layer extrusion width = 0.50mm

; external perimeters extrusion width = 0.40mm
; perimeters extrusion width = 0.40mm
; infill extrusion width = 0.45mm
; solid infill extrusion width = 0.40mm
; top infill extrusion width = 0.40mm
; first layer extrusion width = 0.50mm

; EXECUTABLE_BLOCK_START
EXCLUDE_OBJECT_DEFINE NAME=p_00_id_0_copy_0 CENTER=170.121,178.628 POLYGON=[[150.121,158.628],[190.121,158.628],[190.121,198.628],[150.121,198.628],[150.121,158.628]]
EXCLUDE_OBJECT_DEFINE NAME=p_01_id_1_copy_0 CENTER=100.026,178.661 POLYGON=[[80.0255,158.661],[120.026,158.661],[120.026,198.661],[80.0255,198.661],[80.0255,158.661]]
EXCLUDE_OBJECT_DEFINE NAME=n_03_id_2_copy_0 CENTER=169.906,108.382 POLYGON=[[149.906,88.3815],[189.906,88.3815],[189.906,128.381],[149.906,128.381],[149.906,88.3815]]
EXCLUDE_OBJECT_DEFINE NAME=n_02_id_3_copy_0 CENTER=100.392,108.863 POLYGON=[[80.3922,88.8629],[120.392,88.8629],[120.392,128.863],[80.3922,128.863],[80.3922,88.8629]]
EXCLUDE_OBJECT_DEFINE NAME=p_03_id_4_copy_0 CENTER=170.114,249.261 POLYGON=[[150.114,229.261],[190.114,229.261],[190.114,269.261],[150.114,269.261],[150.114,229.261]]
EXCLUDE_OBJECT_DEFINE NAME=n_01_id_5_copy_0 CENTER=240.354,178.068 POLYGON=[[220.354,158.068],[260.354,158.068],[260.354,198.068],[220.354,198.068],[220.354,158.068]]
EXCLUDE_OBJECT_DEFINE NAME=p_04_id_6_copy_0 CENTER=100.302,249.913 POLYGON=[[80.3024,229.913],[120.302,229.913],[120.302,269.913],[80.3024,269.913],[80.3024,229.913]]
EXCLUDE_OBJECT_DEFINE NAME=n_04_id_7_copy_0 CENTER=240.05,108.149 POLYGON=[[220.05,88.1493],[260.05,88.1493],[260.05,128.149],[220.05,128.149],[220.05,88.1493]]
EXCLUDE_OBJECT_DEFINE NAME=p_02_id_8_copy_0 CENTER=239.901,248.262 POLYGON=[[219.901,228.262],[259.901,228.262],[259.901,268.262],[219.901,268.262],[219.901,228.262]]
M73 P0 R28
;TYPE:Custom
M190 S70
M109 S240
PRINT_START EXTRUDER=240 BED=70
; You can use following code instead if your PRINT_START macro support Chamber and print area bedmesh
; PRINT_START EXTRUDER=240 BED=70 Chamber=0 PRINT_MIN=80.0255,88.1493 PRINT_MAX=260.354,269.913
G90
G21
M83 ; use relative distances for extrusion
; filament start gcode
SET_PRESSURE_ADVANCE ADVANCE=0.046; Override pressure advance value
M106 S0
;LAYER_CHANGE
;Z:0.2
;HEIGHT:0.2
;BEFORE_LAYER_CHANGE
;0.2
G92 E0

G1 E-.8 F1800
;AFTER_LAYER_CHANGE
;0.2
;_SET_FAN_SPEED_CHANGING_LAYER
SET_VELOCITY_LIMIT ACCEL=500 ACCEL_TO_DECEL=250
SET_VELOCITY_LIMIT SQUARE_CORNER_VELOCITY=9
; printing object p_00 id:0 copy 0
EXCLUDE_OBJECT_START NAME=p_00_id_0_copy_0
G1 Z.4 F21000
G1 X188.957 Y197.464
G1 Z.4
G1 Z.2
G1 E.8 F1800
;TYPE:Inner wall
;WIDTH:0.499999
G1 F3000
G1 X151.285 Y197.464 E1.38881
G1 X151.285 Y159.792 E1.38881
G1 X188.957 Y159.792 E1.38881
G1 X188.957 Y197.424 E1.38733
G1 X189.414 Y197.921 F21000
G1 F3000
G1 X150.828 Y197.921 E1.42251
G1 X150.828 Y159.335 E1.42251
G1 X189.414 Y159.335 E1.42251
G1 X189.414 Y197.881 E1.42103
G1 X189.871 Y198.378 F21000
;TYPE:Outer wall
G1 F3000
G1 X150.371 Y198.378 E1.45621
G1 X150.371 Y158.878 E1.45621
G1 X189.871 Y158.878 E1.45621
G1 X189.871 Y198.338 E1.45474
G1 E-.56 F1800
;WIPE_START
G1 F3000
G1 X188.871 Y198.339 E-.24
;WIPE_END
G1 Z.6 F21000
G1 X188.82 Y160.86 Z.6
G1 Z.2
G1 E.8 F1800
;TYPE:Bottom surface
;WIDTH:0.503377
G1 F6300
G1 X188.094 Y160.135 E.0381
G1 X187.443 Y160.135 E.02418
G1 X188.614 Y161.306 E.0615
G1 X188.614 Y161.957 E.02418
G1 X186.792 Y160.135 E.0957
G1 X186.141 Y160.135 E.02418
G1 X188.614 Y162.608 E.1299
G1 X188.614 Y163.259 E.02418
G1 X185.49 Y160.135 E.1641
G1 X184.838 Y160.135 E.02418
G1 X188.614 Y163.91 E.19831
G1 X188.614 Y164.562 E.02418
G1 X184.187 Y160.135 E.23251
G1 X183.536 Y160.135 E.02418
G1 X188.614 Y165.213 E.26671
G1 X188.614 Y165.864 E.02418
G1 X182.885 Y160.135 E.30091
G1 X182.234 Y160.135 E.02418
G1 X188.614 Y166.515 E.33511
G1 X188.614 Y167.166 E.02418
G1 X181.583 Y160.135 E.36931
G1 X180.931 Y160.135 E.02418
G1 X188.614 Y167.817 E.40351
G1 X188.614 Y168.469 E.02418
G1 X180.28 Y160.135 E.43772
G1 X179.629 Y160.135 E.02418
G1 X188.614 Y169.12 E.47192
G1 X188.614 Y169.771 E.02418
G1 X178.978 Y160.135 E.50612
G1 X178.327 Y160.135 E.02418
G1 X188.614 Y170.422 E.54032
G1 X188.614 Y171.073 E.02418
G1 X177.675 Y160.135 E.57452
G1 X177.024 Y160.135 E.02418
G1 X188.614 Y171.725 E.60872
M73 P1 R28
G1 X188.614 Y172.376 E.02418
G1 X176.373 Y160.135 E.64292
G1 X175.722 Y160.135 E.02418
G1 X188.614 Y173.027 E.67713
G1 X188.614 Y173.678 E.02418
G1 X175.071 Y160.135 E.71133
G1 X174.42 Y160.135 E.02418
G1 X188.614 Y174.329 E.74553
G1 X188.614 Y174.98 E.02418
G1 X173.768 Y160.135 E.77973
G1 X173.117 Y160.135 E.02418
G1 X188.614 Y175.632 E.81393
G1 X188.614 Y176.283 E.02418
G1 X172.466 Y160.135 E.84813
G1 X171.815 Y160.135 E.02418
G1 X188.614 Y176.934 E.88233
G1 X188.614 Y177.585 E.02418
G1 X171.164 Y160.135 E.91654
G1 X170.512 Y160.135 E.02418
G1 X188.614 Y178.236 E.95074
G1 X188.614 Y178.888 E.02418
G1 X169.861 Y160.135 E.98494
G1 X169.21 Y160.135 E.02418
G1 X188.614 Y179.539 E1.01914
G1 X188.614 Y180.19 E.02418
G1 X168.559 Y160.135 E1.05334
G1 X167.908 Y160.135 E.02418
G1 X188.614 Y180.841 E1.08754
G1 X188.614 Y181.492 E.02418
G1 X167.256 Y160.135 E1.12174
G1 X166.605 Y160.135 E.02418
G1 X188.614 Y182.144 E1.15595
G1 X188.614 Y182.795 E.02418
G1 X165.954 Y160.135 E1.19015
G1 X165.303 Y160.135 E.02418
G1 X188.614 Y183.446 E1.22435
G1 X188.614 Y184.097 E.02418
G1 X164.652 Y160.135 E1.25855
G1 X164.001 Y160.135 E.02418
G1 X188.614 Y184.748 E1.29275
M73 P1 R27
G1 X188.614 Y185.399 E.02418
G1 X163.349 Y160.135 E1.32695
G1 X162.698 Y160.135 E.02418
G1 X188.614 Y186.051 E1.36115
G1 X188.614 Y186.702 E.02418
G1 X162.047 Y160.135 E1.39535
G1 X161.396 Y160.135 E.02418
G1 X188.614 Y187.353 E1.42956
G1 X188.614 Y188.004 E.02418
G1 X160.745 Y160.135 E1.46376
G1 X160.093 Y160.135 E.02418
G1 X188.614 Y188.655 E1.49796
G1 X188.614 Y189.307 E.02418
G1 X159.442 Y160.135 E1.53216
G1 X158.791 Y160.135 E.02418
G1 X188.614 Y189.958 E1.56636
G1 X188.614 Y190.609 E.02418
G1 X158.14 Y160.135 E1.60056
G1 X157.489 Y160.135 E.02418
G1 X188.614 Y191.26 E1.63476
G1 X188.614 Y191.911 E.02418
G1 X156.838 Y160.135 E1.66897
G1 X156.186 Y160.135 E.02418
G1 X188.614 Y192.562 E1.70317
G1 X188.614 Y193.214 E.02418
G1 X155.535 Y160.135 E1.73737
M73 P2 R27
G1 X154.884 Y160.135 E.02418
G1 X188.614 Y193.865 E1.77157
G1 X188.614 Y194.516 E.02418
G1 X154.233 Y160.135 E1.80577
G1 X153.582 Y160.135 E.02418
G1 X188.614 Y195.167 E1.83997
G1 X188.614 Y195.818 E.02418
G1 X152.93 Y160.135 E1.87417
G1 X152.279 Y160.135 E.02418
G1 X188.614 Y196.47 E1.90838
G1 X188.614 Y197.121 E.02418
G1 X151.628 Y160.135 E1.94257
G1 X151.628 Y160.786 E.02418
G1 X187.963 Y197.121 E1.90837
G1 X187.312 Y197.121 E.02418
G1 X151.628 Y161.437 E1.87417
G1 X151.628 Y162.088 E.02418
G1 X186.661 Y197.121 E1.83997
G1 X186.009 Y197.121 E.02418
G1 X151.628 Y162.739 E1.80577
G1 X151.628 Y163.391 E.02418
G1 X185.358 Y197.121 E1.77157
G1 X184.707 Y197.121 E.02418
G1 X151.628 Y164.042 E1.73737
G1 X151.628 Y164.693 E.02418
G1 X184.056 Y197.121 E1.70316
G1 X183.405 Y197.121 E.02418
G1 X151.628 Y165.344 E1.66896
G1 X151.628 Y165.995 E.02418
G1 X182.753 Y197.121 E1.63476
G1 X182.102 Y197.121 E.02418
G1 X151.628 Y166.647 E1.60056
G1 X151.628 Y167.298 E.02418
G1 X181.451 Y197.121 E1.56636
G1 X180.8 Y197.121 E.02418
G1 X151.628 Y167.949 E1.53216
G1 X151.628 Y168.6 E.02418
G1 X180.149 Y197.121 E1.49796
G1 X179.498 Y197.121 E.02418
G1 X151.628 Y169.251 E1.46375
G1 X151.628 Y169.902 E.02418
G1 X178.846 Y197.121 E1.42955
G1 X178.195 Y197.121 E.02418
G1 X151.628 Y170.554 E1.39535
G1 X151.628 Y171.205 E.02418
G1 X177.544 Y197.121 E1.36115
G1 X176.893 Y197.121 E.02418
G1 X151.628 Y171.856 E1.32695
G1 X151.628 Y172.507 E.02418
G1 X176.242 Y197.121 E1.29275
G1 X175.59 Y197.121 E.02418
G1 X151.628 Y173.158 E1.25855
M73 P3 R27
G1 X151.628 Y173.81 E.02418
G1 X174.939 Y197.121 E1.22434
G1 X174.288 Y197.121 E.02418
G1 X151.628 Y174.461 E1.19014
G1 X151.628 Y175.112 E.02418
G1 X173.637 Y197.121 E1.15594
G1 X172.986 Y197.121 E.02418
G1 X151.628 Y175.763 E1.12174
G1 X151.628 Y176.414 E.02418
G1 X172.334 Y197.121 E1.08754
G1 X171.683 Y197.121 E.02418
G1 X151.628 Y177.065 E1.05334
G1 X151.628 Y177.717 E.02418
G1 X171.032 Y197.121 E1.01914
G1 X170.381 Y197.121 E.02418
G1 X151.628 Y178.368 E.98493
G1 X151.628 Y179.019 E.02418
G1 X169.73 Y197.121 E.95073
G1 X169.079 Y197.121 E.02418
G1 X151.628 Y179.67 E.91653
G1 X151.628 Y180.321 E.02418
G1 X168.427 Y197.121 E.88233
G1 X167.776 Y197.121 E.02418
G1 X151.628 Y180.973 E.84813
G1 X151.628 Y181.624 E.02418
G1 X167.125 Y197.121 E.81393
G1 X166.474 Y197.121 E.02418
G1 X151.628 Y182.275 E.77973
G1 X151.628 Y182.926 E.02418
G1 X165.823 Y197.121 E.74553
G1 X165.171 Y197.121 E.02418
G1 X151.628 Y183.577 E.71132
G1 X151.628 Y184.229 E.02418
G1 X164.52 Y197.121 E.67712
G1 X163.869 Y197.121 E.02418
G1 X151.628 Y184.88 E.64292
G1 X151.628 Y185.531 E.02418
G1 X163.218 Y197.121 E.60872
G1 X162.567 Y197.121 E.02418
G1 X151.628 Y186.182 E.57452
G1 X151.628 Y186.833 E.02418
G1 X161.916 Y197.121 E.54032
G1 X161.264 Y197.121 E.02418
G1 X151.628 Y187.484 E.50612
G1 X151.628 Y188.136 E.02418
G1 X160.613 Y197.121 E.47191
G1 X159.962 Y197.121 E.02418
G1 X151.628 Y188.787 E.43771
G1 X151.628 Y189.438 E.02418
G1 X159.311 Y197.121 E.40351
G1 X158.66 Y197.121 E.02418
G1 X151.628 Y190.089 E.36931
G1 X151.628 Y190.74 E.02418
G1 X158.008 Y197.121 E.33511
G1 X157.357 Y197.121 E.02418
G1 X151.628 Y191.392 E.30091
G1 X151.628 Y192.043 E.02418
G1 X156.706 Y197.121 E.26671
G1 X156.055 Y197.121 E.02418
G1 X151.628 Y192.694 E.2325
G1 X151.628 Y193.345 E.02418
G1 X155.404 Y197.121 E.1983
G1 X154.753 Y197.121 E.02418
G1 X151.628 Y193.996 E.1641
G1 X151.628 Y194.647 E.02418
G1 X154.101 Y197.121 E.1299
G1 X153.45 Y197.121 E.02418
G1 X151.628 Y195.299 E.0957
G1 X151.628 Y195.95 E.02418
G1 X152.799 Y197.121 E.0615
G1 X152.148 Y197.121 E.02418
G1 X151.422 Y196.395 E.0381
; stop printing object p_00 id:0 copy 0
; printing object p_01 id:1 copy 0
G1 E-.56 F1800
;WIPE_START
G1 F6300
G1 X152.129 Y197.102 E-.24
;WIPE_END
EXCLUDE_OBJECT_END NAME=p_00_id_0_copy_0
EXCLUDE_OBJECT_START NAME=p_01_id_1_copy_0
G1 Z.6 F21000
G1 X118.861 Y197.497 Z.6
G1 Z.2
G1 E.8 F1800
;TYPE:Inner wall
;WIDTH:0.499999
G1 F3000
G1 X81.19 Y197.497 E1.38881
G1 X81.19 Y159.825 E1.38881
G1 X118.861 Y159.825 E1.38881
G1 X118.861 Y197.457 E1.38733
M73 P4 R27
G1 X119.318 Y197.954 F21000
G1 F3000
G1 X80.733 Y197.954 E1.42251
G1 X80.733 Y159.368 E1.42251
G1 X119.318 Y159.368 E1.42251
G1 X119.318 Y197.914 E1.42103
G1 X119.776 Y198.411 F21000
;TYPE:Outer wall
G1 F3000
G1 X80.276 Y198.411 E1.45621
G1 X80.276 Y158.911 E1.45621
G1 X119.776 Y158.911 E1.45621
G1 X119.776 Y198.371 E1.45474
G1 E-.56 F1800
;WIPE_START
G1 F3000
G1 X118.776 Y198.372 E-.24
;WIPE_END
G1 Z.6 F21000
G1 X118.724 Y160.893 Z.6
G1 Z.2
G1 E.8 F1800
;TYPE:Bottom surface
;WIDTH:0.503377
G1 F6300
G1 X117.999 Y160.168 E.0381
G1 X117.348 Y160.168 E.02418
G1 X118.519 Y161.339 E.0615
G1 X118.519 Y161.99 E.02418
G1 X116.696 Y160.168 E.0957
G1 X116.045 Y160.168 E.02418
G1 X118.519 Y162.641 E.1299
G1 X118.519 Y163.292 E.02418
G1 X115.394 Y160.168 E.1641
G1 X114.743 Y160.168 E.02418
G1 X118.519 Y163.944 E.19831
G1 X118.519 Y164.595 E.02418
G1 X114.092 Y160.168 E.23251
G1 X113.441 Y160.168 E.02418
G1 X118.519 Y165.246 E.26671
G1 X118.519 Y165.897 E.02418
G1 X112.789 Y160.168 E.30091
G1 X112.138 Y160.168 E.02418
G1 X118.519 Y166.548 E.33511
G1 X118.519 Y167.199 E.02418
G1 X111.487 Y160.168 E.36931
G1 X110.836 Y160.168 E.02418
G1 X118.519 Y167.851 E.40351
G1 X118.519 Y168.502 E.02418
G1 X110.185 Y160.168 E.43772
G1 X109.533 Y160.168 E.02418
G1 X118.519 Y169.153 E.47192
G1 X118.519 Y169.804 E.02418
G1 X108.882 Y160.168 E.50612
G1 X108.231 Y160.168 E.02418
G1 X118.519 Y170.455 E.54032
G1 X118.519 Y171.107 E.02418
G1 X107.58 Y160.168 E.57452
G1 X106.929 Y160.168 E.02418
G1 X118.519 Y171.758 E.60872
G1 X118.519 Y172.409 E.02418
G1 X106.277 Y160.168 E.64292
G1 X105.626 Y160.168 E.02418
G1 X118.519 Y173.06 E.67713
G1 X118.519 Y173.711 E.02418
G1 X104.975 Y160.168 E.71133
G1 X104.324 Y160.168 E.02418
G1 X118.519 Y174.363 E.74553
G1 X118.519 Y175.014 E.02418
G1 X103.673 Y160.168 E.77973
G1 X103.022 Y160.168 E.02418
G1 X118.519 Y175.665 E.81393
G1 X118.519 Y176.316 E.02418
G1 X102.37 Y160.168 E.84813
G1 X101.719 Y160.168 E.02418
G1 X118.519 Y176.967 E.88233
G1 X118.519 Y177.618 E.02418
G1 X101.068 Y160.168 E.91654
G1 X100.417 Y160.168 E.02418
G1 X118.519 Y178.27 E.95074
G1 X118.519 Y178.921 E.02418
G1 X99.766 Y160.168 E.98494
M73 P5 R27
G1 X99.114 Y160.168 E.02418
G1 X118.519 Y179.572 E1.01914
G1 X118.519 Y180.223 E.02418
G1 X98.463 Y160.168 E1.05334
M73 P5 R26
G1 X97.812 Y160.168 E.02418
G1 X118.519 Y180.874 E1.08754
G1 X118.519 Y181.526 E.02418
G1 X97.161 Y160.168 E1.12174
G1 X96.51 Y160.168 E.02418
G1 X118.519 Y182.177 E1.15595
G1 X118.519 Y182.828 E.02418
G1 X95.859 Y160.168 E1.19015
G1 X95.207 Y160.168 E.02418
G1 X118.519 Y183.479 E1.22435
G1 X118.519 Y184.13 E.02418
G1 X94.556 Y160.168 E1.25855
G1 X93.905 Y160.168 E.02418
G1 X118.519 Y184.781 E1.29275
G1 X118.519 Y185.433 E.02418
G1 X93.254 Y160.168 E1.32695
G1 X92.603 Y160.168 E.02418
G1 X118.519 Y186.084 E1.36115
G1 X118.519 Y186.735 E.02418
G1 X91.951 Y160.168 E1.39535
G1 X91.3 Y160.168 E.02418
G1 X118.519 Y187.386 E1.42956
G1 X118.519 Y188.037 E.02418
G1 X90.649 Y160.168 E1.46376
G1 X89.998 Y160.168 E.02418
G1 X118.519 Y188.689 E1.49796
G1 X118.519 Y189.34 E.02418
G1 X89.347 Y160.168 E1.53216
G1 X88.696 Y160.168 E.02418
G1 X118.519 Y189.991 E1.56636
G1 X118.519 Y190.642 E.02418
G1 X88.044 Y160.168 E1.60056
G1 X87.393 Y160.168 E.02418
G1 X118.519 Y191.293 E1.63476
G1 X118.519 Y191.944 E.02418
G1 X86.742 Y160.168 E1.66897
G1 X86.091 Y160.168 E.02418
G1 X118.519 Y192.596 E1.70317
G1 X118.519 Y193.247 E.02418
G1 X85.44 Y160.168 E1.73737
G1 X84.788 Y160.168 E.02418
G1 X118.519 Y193.898 E1.77157
G1 X118.519 Y194.549 E.02418
G1 X84.137 Y160.168 E1.80577
G1 X83.486 Y160.168 E.02418
